fs/clipboard_task_list_ltr_24_filled.svg

<svg viewBox="0 0 24 24" fill="none" xmlns="http://www.w3.org/2000/svg" height="1em" width="1em">
  <path d="M13.75 2H10.25C9.09205 2 8.13841 2.87472 8.01379 3.99944L6.25 4C5.00736 4 4 5.00736 4 6.25V19.75C4 20.9926 5.00736 22 6.25 22H17.75C18.9926 22 20 20.9926 20 19.75V6.25C20 5.00736 18.9926 4 17.75 4L15.9862 3.99944C15.8616 2.87472 14.9079 2 13.75 2ZM10.25 3.5H13.75C14.1642 3.5 14.5 3.83579 14.5 4.25C14.5 4.66421 14.1642 5 13.75 5H10.25C9.83579 5 9.5 4.66421 9.5 4.25C9.5 3.83579 9.83579 3.5 10.25 3.5ZM12.5 10.25C12.5 9.83579 12.8358 9.5 13.25 9.5H16.75C17.1642 9.5 17.5 9.83579 17.5 10.25C17.5 10.6642 17.1642 11 16.75 11H13.25C12.8358 11 12.5 10.6642 12.5 10.25ZM13.2501 15H16.7499C17.1642 15 17.4999 15.3358 17.4999 15.75C17.4999 16.1642 17.1642 16.5 16.7499 16.5H13.2501C12.8358 16.5 12.5001 16.1642 12.5001 15.75C12.5001 15.3358 12.8358 15 13.2501 15ZM10.7803 9.78033L8.78033 11.7803C8.48744 12.0732 8.01256 12.0732 7.71967 11.7803L6.71967 10.7803C6.42678 10.4874 6.42678 10.0126 6.71967 9.71967C7.01256 9.42678 7.48744 9.42678 7.78033 9.71967L8.25 10.1893L9.71967 8.71967C10.0126 8.42678 10.4874 8.42678 10.7803 8.71967C11.0732 9.01256 11.0732 9.48744 10.7803 9.78033ZM10.7803 14.2197C11.0732 14.5126 11.0732 14.9874 10.7803 15.2803L8.78033 17.2803C8.48744 17.5732 8.01256 17.5732 7.71967 17.2803L6.71967 16.2803C6.42678 15.9874 6.42678 15.5126 6.71967 15.2197C7.01256 14.9268 7.48744 14.9268 7.78033 15.2197L8.25 15.6893L9.71967 14.2197C10.0126 13.9268 10.4874 13.9268 10.7803 14.2197Z" fill="#212121"/>
</svg>

<svg viewBox="0 0 24 24" fill="none" xmlns="http://www.w3.org/2000/svg" height="1em" width="1em">
  <path d="M13.75 2h-3.5a2.25 2.25 0 0 0-2.236 2H6.25A2.25 2.25 0 0 0 4 6.25v13.5A2.25 2.25 0 0 0 6.25 22h11.5A2.25 2.25 0 0 0 20 19.75V6.25A2.25 2.25 0 0 0 17.75 4h-1.764a2.25 2.25 0 0 0-2.236-2Zm-3.5 1.5h3.5a.75.75 0 0 1 0 1.5h-3.5a.75.75 0 0 1 0-1.5Zm2.25 6.75a.75.75 0 0 1 .75-.75h3.5a.75.75 0 0 1 0 1.5h-3.5a.75.75 0 0 1-.75-.75Zm.75 4.75h3.5a.75.75 0 1 1 0 1.5h-3.5a.75.75 0 1 1 0-1.5Zm-2.47-5.22-2 2a.75.75 0 0 1-1.06 0l-1-1a.75.75 0 1 1 1.06-1.06l.47.47 1.47-1.47a.75.75 0 1 1 1.06 1.06Zm0 4.44a.75.75 0 0 1 0 1.06l-2 2a.75.75 0 0 1-1.06 0l-1-1a.75.75 0 1 1 1.06-1.06l.47.47 1.47-1.47a.75.75 0 0 1 1.06 0Z" fill="#212121"/>
</svg>
